X:60
C:Page 31
T:Wounded Hussar. MBe.60
S:Matthew Betham MS, Towcett Cumbria, 1815
O:England;Cumbria;Towcett
Z:VMP – Hugh Taylor, 2012
M:C
L:1/8
Q:3/4=30
R:.Air
N:NB-These 3 notes were written as a quaver and 2 semiquavers, but I’ve made them the same as the 5th bar.
K:Am
A/G/|”^NB”EAB c2 B/A/|B/c/d/c/B/A/ GAB|cec e/d/c/B/A/G/|EAA A2 A/G/|
EAB c2 B/A/|B/c/d/c/B/A/ GAB|g>^fe dBA|EAA A2:|
|:A/B/|cee e2 d/c/|Bdd d2 g/f/|e>ag !fermata!a2 b/c’/|eag a2 a/b/|
c’ba gfe|e/d/c/B/g GGB/B/|cec e/d/c/B/A/G/|EAA A2:|

